X: 4051
M: C|
L: 1/8
K: D
|:\
vA2(AB) ABde | fedf edBd |\
|:\
a2(ab) afde | fedf edBA |\
[1 a2(ab) afde | fedf e2(fg) :|\
[2 A2(AB) ABde | fdec d2f2 |]


